flaticon/business/investment.svg

<svg xmlns="http://www.w3.org/2000/svg" width="32" height="32" viewBox="0 0 24 24">
    <path d="M22 8.515625C21.777344 8.515625 21.601562 8.695312 21.601562 8.917969L21.601562 9.316406C21.601562 9.539062 21.777344 9.71875 22 9.71875 22.222656 9.71875 22.398438 9.539062 22.398438 9.316406L22.398438 8.917969C22.398438 8.695312 22.222656 8.515625 22 8.515625zM22 5.25C21.777344 5.25 21.601562 5.429688 21.601562 5.652344L21.601562 6.585938C21.601562 6.804688 21.777344 6.984375 22 6.984375 22.222656 6.984375 22.398438 6.804688 22.398438 6.585938L22.398438 5.652344C22.398438 5.429688 22.222656 5.25 22 5.25zM21.601562 3.316406C21.601562 3.539062 21.777344 3.71875 22 3.71875 22.222656 3.71875 22.398438 3.539062 22.398438 3.316406L22.398438 2.515625 21.601562 2.515625C21.378906 2.515625 21.199219 2.695312 21.199219 2.917969 21.199219 3.136719 21.378906 3.316406 21.601562 3.316406zM7.300781 3.316406L8.117188 3.316406C8.339844 3.316406 8.519531 3.136719 8.519531 2.917969 8.519531 2.695312 8.339844 2.515625 8.117188 2.515625L7.300781 2.515625C7.082031 2.515625 6.902344 2.695312 6.902344 2.917969 6.902344 3.136719 7.082031 3.316406 7.300781 3.316406zM10.160156 3.316406L10.976562 3.316406C11.199219 3.316406 11.378906 3.136719 11.378906 2.917969 11.378906 2.695312 11.199219 2.515625 10.976562 2.515625L10.160156 2.515625C9.941406 2.515625 9.761719 2.695312 9.761719 2.917969 9.761719 3.136719 9.941406 3.316406 10.160156 3.316406zM13.019531 3.316406L13.839844 3.316406C14.058594 3.316406 14.238281 3.136719 14.238281 2.917969 14.238281 2.695312 14.058594 2.515625 13.839844 2.515625L13.019531 2.515625C12.800781 2.515625 12.621094 2.695312 12.621094 2.917969 12.621094 3.136719 12.800781 3.316406 13.019531 3.316406zM18.742188 3.316406L19.558594 3.316406C19.777344 3.316406 19.957031 3.136719 19.957031 2.917969 19.957031 2.695312 19.777344 2.515625 19.558594 2.515625L18.742188 2.515625C18.519531 2.515625 18.339844 2.695312 18.339844 2.917969 18.339844 3.136719 18.519531 3.316406 18.742188 3.316406zM15.878906 3.316406L16.699219 3.316406C16.917969 3.316406 17.097656 3.136719 17.097656 2.917969 17.097656 2.695312 16.917969 2.515625 16.699219 2.515625L15.878906 2.515625C15.660156 2.515625 15.480469 2.695312 15.480469 2.917969 15.480469 3.136719 15.660156 3.316406 15.878906 3.316406zM4.441406 3.316406L5.257812 3.316406C5.480469 3.316406 5.660156 3.136719 5.660156 2.917969 5.660156 2.695312 5.480469 2.515625 5.257812 2.515625L4.441406 2.515625C4.222656 2.515625 4.042969 2.695312 4.042969 2.917969 4.042969 3.136719 4.222656 3.316406 4.441406 3.316406zM2 3.71875C2.222656 3.71875 2.398438 3.539062 2.398438 3.316406 2.621094 3.316406 2.800781 3.136719 2.800781 2.917969 2.800781 2.695312 2.621094 2.515625 2.398438 2.515625L1.601562 2.515625 1.601562 3.316406C1.601562 3.539062 1.777344 3.71875 2 3.71875zM2 6.601562C2.222656 6.601562 2.398438 6.421875 2.398438 6.203125L2.398438 5.378906C2.398438 5.15625 2.222656 4.976562 2 4.976562 1.777344 4.976562 1.601562 5.15625 1.601562 5.378906L1.601562 6.203125C1.601562 6.421875 1.777344 6.601562 2 6.601562zM2 15.257812C2.222656 15.257812 2.398438 15.078125 2.398438 14.855469L2.398438 14.03125C2.398438 13.8125 2.222656 13.632812 2 13.632812 1.777344 13.632812 1.601562 13.8125 1.601562 14.03125L1.601562 14.855469C1.601562 15.078125 1.777344 15.257812 2 15.257812zM2 9.488281C2.222656 9.488281 2.398438 9.308594 2.398438 9.085938L2.398438 8.261719C2.398438 8.042969 2.222656 7.863281 2 7.863281 1.777344 7.863281 1.601562 8.042969 1.601562 8.261719L1.601562 9.085938C1.601562 9.308594 1.777344 9.488281 2 9.488281zM2 12.371094C2.222656 12.371094 2.398438 12.191406 2.398438 11.972656L2.398438 11.148438C2.398438 10.925781 2.222656 10.746094 2 10.746094 1.777344 10.746094 1.601562 10.925781 1.601562 11.148438L1.601562 11.972656C1.601562 12.191406 1.777344 12.371094 2 12.371094zM2.800781 17.316406C2.800781 17.097656 2.621094 16.917969 2.398438 16.917969 2.398438 16.695312 2.222656 16.515625 2 16.515625 1.777344 16.515625 1.601562 16.695312 1.601562 16.917969L1.601562 17.71875 2.398438 17.71875C2.621094 17.71875 2.800781 17.539062 2.800781 17.316406zM10.800781 16.917969L10 16.917969C9.777344 16.917969 9.601562 17.097656 9.601562 17.316406 9.601562 17.539062 9.777344 17.71875 10 17.71875L10.800781 17.71875C11.019531 17.71875 11.199219 17.539062 11.199219 17.316406 11.199219 17.097656 11.019531 16.917969 10.800781 16.917969zM4.398438 17.71875L5.199219 17.71875C5.421875 17.71875 5.601562 17.539062 5.601562 17.316406 5.601562 17.097656 5.421875 16.917969 5.199219 16.917969L4.398438 16.917969C4.179688 16.917969 4 17.097656 4 17.316406 4 17.539062 4.179688 17.71875 4.398438 17.71875zM8 16.917969L7.199219 16.917969C6.980469 16.917969 6.800781 17.097656 6.800781 17.316406 6.800781 17.539062 6.980469 17.71875 7.199219 17.71875L8 17.71875C8.222656 17.71875 8.398438 17.539062 8.398438 17.316406 8.398438 17.097656 8.222656 16.917969 8 16.917969zM13.199219 16.917969L12.800781 16.917969C12.578125 16.917969 12.398438 17.097656 12.398438 17.316406 12.398438 17.539062 12.578125 17.71875 12.800781 17.71875L13.199219 17.71875C13.421875 17.71875 13.601562 17.539062 13.601562 17.316406 13.601562 17.097656 13.421875 16.917969 13.199219 16.917969zM13.199219 16.917969"/>
    <path d="M 24 0.917969 L 0 0.917969 L 0 19.316406 L 15.199219 19.316406 L 15.199219 23.082031 L 18 20.28125 L 20.800781 23.082031 L 20.800781 19.316406 L 24 19.316406 Z M 20 21.152344 L 18 19.152344 L 16 21.152344 L 16 16.777344 C 16.003906 16.78125 16.011719 16.78125 16.015625 16.785156 C 16.601562 17.121094 17.277344 17.316406 18 17.316406 C 18.722656 17.316406 19.398438 17.121094 19.984375 16.785156 C 19.988281 16.78125 19.996094 16.78125 20 16.777344 Z M 20.117188 15.710938 C 20.054688 15.765625 19.988281 15.816406 19.921875 15.867188 C 19.910156 15.878906 19.898438 15.886719 19.886719 15.898438 C 19.820312 15.945312 19.75 15.992188 19.683594 16.035156 C 19.667969 16.042969 19.652344 16.054688 19.636719 16.0625 C 19.570312 16.101562 19.5 16.140625 19.429688 16.175781 C 19.410156 16.1875 19.390625 16.195312 19.371094 16.203125 C 19.300781 16.238281 19.234375 16.265625 19.164062 16.292969 C 19.140625 16.304688 19.113281 16.3125 19.085938 16.324219 C 19.019531 16.347656 18.957031 16.371094 18.890625 16.386719 C 18.855469 16.398438 18.820312 16.40625 18.78125 16.414062 C 18.722656 16.429688 18.664062 16.445312 18.605469 16.457031 C 18.554688 16.46875 18.5 16.472656 18.449219 16.480469 C 18.402344 16.488281 18.355469 16.496094 18.308594 16.5 C 18.207031 16.511719 18.101562 16.515625 18 16.515625 C 17.894531 16.515625 17.792969 16.511719 17.691406 16.5 C 17.644531 16.496094 17.597656 16.488281 17.550781 16.480469 C 17.5 16.472656 17.445312 16.46875 17.394531 16.457031 C 17.335938 16.445312 17.277344 16.429688 17.21875 16.414062 C 17.179688 16.40625 17.144531 16.398438 17.109375 16.386719 C 17.042969 16.371094 16.976562 16.347656 16.914062 16.324219 C 16.886719 16.3125 16.859375 16.304688 16.832031 16.292969 C 16.765625 16.265625 16.695312 16.238281 16.628906 16.203125 C 16.609375 16.195312 16.589844 16.1875 16.570312 16.175781 C 16.5 16.140625 16.429688 16.101562 16.363281 16.0625 C 16.347656 16.054688 16.332031 16.042969 16.316406 16.035156 C 16.246094 15.992188 16.179688 15.945312 16.113281 15.898438 C 16.101562 15.886719 16.089844 15.878906 16.074219 15.867188 C 16.007812 15.816406 15.945312 15.765625 15.882812 15.710938 C 15.21875 15.125 14.800781 14.269531 14.800781 13.316406 C 14.800781 11.554688 16.234375 10.117188 18 10.117188 C 19.765625 10.117188 21.199219 11.554688 21.199219 13.316406 C 21.199219 14.269531 20.78125 15.125 20.117188 15.710938 Z M 23.199219 18.515625 L 20.800781 18.515625 L 20.800781 16.167969 C 21.539062 15.441406 22 14.433594 22 13.316406 C 22 11.113281 20.207031 9.316406 18 9.316406 C 15.792969 9.316406 14 11.113281 14 13.316406 C 14 14.433594 14.460938 15.441406 15.199219 16.167969 L 15.199219 18.515625 L 0.800781 18.515625 L 0.800781 1.71875 L 23.199219 1.71875 Z M 23.199219 18.515625"/>
    <path d="M4.871094 6.027344C4.628906 6.316406 4.515625 6.683594 4.554688 7.066406 4.597656 7.457031 4.796875 7.820312 5.109375 8.0625L6 8.757812 6 10.933594C5.535156 10.765625 5.199219 10.328125 5.199219 9.804688 5.199219 9.585938 5.019531 9.40625 4.800781 9.40625 4.578125 9.40625 4.398438 9.585938 4.398438 9.804688 4.398438 10.773438 5.089844 11.578125 6 11.765625L6 12.117188C6 12.339844 6.179688 12.515625 6.398438 12.515625 6.621094 12.515625 6.800781 12.339844 6.800781 12.117188L6.800781 11.765625C7.238281 11.675781 7.632812 11.445312 7.925781 11.097656 8.171875 10.808594 8.285156 10.4375 8.246094 10.054688 8.203125 9.664062 8.003906 9.300781 7.691406 9.058594L6.800781 8.367188 6.800781 6.191406C7.265625 6.355469 7.601562 6.796875 7.601562 7.316406 7.601562 7.539062 7.777344 7.71875 8 7.71875 8.222656 7.71875 8.398438 7.539062 8.398438 7.316406 8.398438 6.351562 7.710938 5.542969 6.800781 5.359375L6.800781 4.917969C6.800781 4.695312 6.621094 4.519531 6.398438 4.519531 6.179688 4.519531 6 4.695312 6 4.917969L6 5.359375C5.5625 5.449219 5.164062 5.679688 4.871094 6.027344zM7.199219 9.691406C7.339844 9.800781 7.429688 9.964844 7.449219 10.136719 7.464844 10.300781 7.417969 10.460938 7.316406 10.582031 7.175781 10.746094 6.996094 10.859375 6.800781 10.929688L6.800781 9.378906zM5.597656 7.433594C5.460938 7.324219 5.371094 7.160156 5.351562 6.984375 5.335938 6.820312 5.378906 6.664062 5.484375 6.542969 5.621094 6.378906 5.800781 6.261719 6 6.191406L6 7.742188zM10 6.917969L19.199219 6.917969C19.421875 6.917969 19.601562 6.738281 19.601562 6.515625 19.601562 6.296875 19.421875 6.117188 19.199219 6.117188L10 6.117188C9.777344 6.117188 9.601562 6.296875 9.601562 6.515625 9.601562 6.738281 9.777344 6.917969 10 6.917969zM10 9.316406L14.398438 9.316406C14.621094 9.316406 14.800781 9.136719 14.800781 8.917969 14.800781 8.695312 14.621094 8.515625 14.398438 8.515625L10 8.515625C9.777344 8.515625 9.601562 8.695312 9.601562 8.917969 9.601562 9.136719 9.777344 9.316406 10 9.316406zM10 11.71875L13.199219 11.71875C13.421875 11.71875 13.601562 11.539062 13.601562 11.316406 13.601562 11.097656 13.421875 10.917969 13.199219 10.917969L10 10.917969C9.777344 10.917969 9.601562 11.097656 9.601562 11.316406 9.601562 11.539062 9.777344 11.71875 10 11.71875zM4.398438 14.515625L12.800781 14.515625C13.019531 14.515625 13.199219 14.339844 13.199219 14.117188 13.199219 13.894531 13.019531 13.71875 12.800781 13.71875L4.398438 13.71875C4.179688 13.71875 4 13.894531 4 14.117188 4 14.339844 4.179688 14.515625 4.398438 14.515625zM4.398438 14.515625"/>
</svg>

<svg xmlns="http://www.w3.org/2000/svg" width="32" height="32" viewBox="0 0 24 24">
    <path d="M22 8.516a.398.398 0 0 0-.398.402v.398a.398.398 0 1 0 .796 0v-.398A.398.398 0 0 0 22 8.516zm0 0M22 5.25a.398.398 0 0 0-.398.402v.934a.398.398 0 1 0 .796 0v-.934A.398.398 0 0 0 22 5.25zm0 0M21.602 3.316a.398.398 0 1 0 .796 0v-.8h-.796a.401.401 0 0 0 0 .8zm0 0M7.3 3.316h.817a.401.401 0 1 0 0-.8h-.816a.401.401 0 0 0 0 .8zm0 0M10.16 3.316h.817a.401.401 0 1 0 0-.8h-.817a.401.401 0 0 0 0 .8zm0 0M13.02 3.316h.82a.4.4 0 0 0 0-.8h-.82a.401.401 0 0 0 0 .8zm0 0M18.742 3.316h.817a.4.4 0 0 0 0-.8h-.817a.401.401 0 0 0 0 .8zm0 0M15.879 3.316h.82a.4.4 0 0 0 0-.8h-.82a.401.401 0 0 0 0 .8zm0 0M4.441 3.316h.817a.401.401 0 1 0 0-.8H4.44a.401.401 0 0 0 0 .8zm0 0M2 3.719c.223 0 .398-.18.398-.403a.401.401 0 1 0 0-.8h-.796v.8c0 .223.175.403.398.403zm0 0M2 6.602c.223 0 .398-.18.398-.399V5.38a.398.398 0 1 0-.796 0v.824c0 .219.175.399.398.399zm0 0M2 15.258c.223 0 .398-.18.398-.403v-.824a.398.398 0 1 0-.796 0v.824c0 .223.175.403.398.403zm0 0M2 9.488c.223 0 .398-.18.398-.402v-.824a.398.398 0 1 0-.796 0v.824c0 .223.175.402.398.402zm0 0M2 12.371c.223 0 .398-.18.398-.398v-.825a.398.398 0 1 0-.796 0v.825c0 .218.175.398.398.398zm0 0M2.8 17.316a.401.401 0 0 0-.402-.398.398.398 0 1 0-.796 0v.8h.796c.223 0 .403-.179.403-.402zm0 0M10.8 16.918H10a.398.398 0 0 0-.398.398c0 .223.175.403.398.403h.8a.401.401 0 0 0 0-.801zm0 0M4.398 17.719H5.2a.401.401 0 0 0 0-.8l-.8-.001a.4.4 0 0 0 0 .8zm0 0M8 16.918h-.8a.4.4 0 0 0 0 .8H8c.223 0 .398-.179.398-.402A.398.398 0 0 0 8 16.918zm0 0M13.2 16.918h-.4a.401.401 0 1 0 0 .8h.4a.401.401 0 0 0 0-.8zm0 0"/>
    <path d="M24 .918H0v18.398h15.2v3.766l2.8-2.8 2.8 2.8v-3.766H24zm-4 20.234l-2-2-2 2v-4.375c.004.004.012.004.016.008a3.975 3.975 0 0 0 3.968 0c.004-.004.012-.004.016-.008zm.117-5.441c-.062.055-.129.105-.195.156-.012.012-.024.02-.035.031a6.169 6.169 0 0 1-.203.137c-.016.008-.032.02-.047.027-.067.04-.137.079-.207.114-.02.012-.04.02-.059.027a2.37 2.37 0 0 1-.207.09c-.023.012-.05.02-.078.031-.066.024-.129.047-.195.063a.895.895 0 0 1-.11.027 2.877 2.877 0 0 1-.176.043c-.05.012-.105.016-.156.023a2.721 2.721 0 0 1-.45.035c-.104 0-.206-.003-.308-.015-.046-.004-.093-.012-.14-.02-.051-.007-.106-.011-.156-.023a2.877 2.877 0 0 1-.176-.043.895.895 0 0 1-.11-.027 1.626 1.626 0 0 1-.195-.063c-.027-.012-.055-.02-.082-.031-.066-.027-.137-.055-.203-.09-.02-.008-.04-.015-.059-.027a3.503 3.503 0 0 1-.207-.113c-.015-.008-.031-.02-.047-.028-.07-.043-.136-.09-.203-.137a3.704 3.704 0 0 1-.23-.188 3.184 3.184 0 0 1-1.082-2.394c0-1.761 1.433-3.199 3.199-3.199 1.766 0 3.2 1.438 3.2 3.2 0 .953-.419 1.808-1.083 2.394zm3.082 2.805h-2.398v-2.348A3.989 3.989 0 0 0 22 13.316c0-2.203-1.793-4-4-4s-4 1.797-4 4c0 1.118.46 2.125 1.2 2.852v2.348H.8V1.719h22.4zm0 0"/>
    <path d="M4.871 6.027c-.242.29-.355.657-.316 1.04.043.39.242.753.554.995L6 8.758v2.176a1.201 1.201 0 0 1-.8-1.13.4.4 0 0 0-.802 0c0 .97.692 1.774 1.602 1.962v.351c0 .223.18.399.398.399a.398.398 0 0 0 .403-.399v-.351c.437-.09.832-.32 1.125-.668.246-.29.36-.66.32-1.043a1.466 1.466 0 0 0-.555-.996l-.89-.692V6.191c.465.164.8.606.8 1.125a.398.398 0 1 0 .797 0c0-.964-.687-1.773-1.597-1.957v-.441a.398.398 0 0 0-.403-.398.398.398 0 0 0-.398.398v.441c-.438.09-.836.32-1.129.668zM7.2 9.691c.14.11.23.274.25.446a.601.601 0 0 1-.133.445 1.21 1.21 0 0 1-.515.348V9.379zM5.598 7.434a.675.675 0 0 1-.246-.45.576.576 0 0 1 .132-.441c.137-.164.317-.281.516-.352v1.551zm0 0M10 6.918h9.2a.401.401 0 0 0 0-.8H10a.398.398 0 0 0-.398.398c0 .222.175.402.398.402zm0 0M10 9.316h4.398a.401.401 0 1 0 0-.8H10a.398.398 0 0 0-.398.402c0 .219.175.398.398.398zm0 0M10 11.719h3.2a.401.401 0 0 0 0-.8l-3.2-.001a.398.398 0 0 0-.398.398c0 .223.175.403.398.403zm0 0M4.398 14.516h8.403a.398.398 0 1 0 0-.797H4.398a.398.398 0 1 0 0 .797zm0 0"/>
</svg>
